packages/icons/svg/24/Hue.svg

<svg width="24" height="24" viewBox="0 0 24 24" fill="none" xmlns="http://www.w3.org/2000/svg">
<path fill-rule="evenodd" clip-rule="evenodd" d="M7.80776 6.39355L9.69511 8.28089C10.0921 8.03447 10.5316 7.84961 11 7.73998V5.0708C9.814 5.24028 8.7243 5.70689 7.80776 6.39355ZM13 5.0708V7.73998C13.4684 7.84961 13.9079 8.03447 14.3049 8.28089L16.1922 6.39355C15.2757 5.70689 14.186 5.24028 13 5.0708ZM17.6065 7.80776L15.7191 9.69511C15.9655 10.0921 16.1504 10.5316 16.26 11H18.9292C18.7597 9.814 18.2931 8.7243 17.6065 7.80776ZM18.9292 13H16.26C16.1504 13.4684 15.9655 13.9079 15.7191 14.3049L17.6065 16.1922C18.2931 15.2757 18.7597 14.186 18.9292 13ZM16.1922 17.6065L14.3049 15.7191C13.9079 15.9655 13.4684 16.1504 13 16.26V18.9292C14.186 18.7597 15.2757 18.2931 16.1922 17.6065ZM11 18.9292V16.26C10.5316 16.1504 10.0921 15.9655 9.69511 15.7191L7.80776 17.6065C8.7243 18.2931 9.814 18.7597 11 18.9292ZM6.39355 16.1922L8.28089 14.3049C8.03447 13.9079 7.84961 13.4684 7.73998 13H5.0708C5.24028 14.186 5.70689 15.2757 6.39355 16.1922ZM5.0708 11H7.73998C7.84961 10.5316 8.03447 10.0921 8.28089 9.69511L6.39355 7.80776C5.70689 8.7243 5.24028 9.814 5.0708 11ZM5.63604 5.63604C7.26362 4.00845 9.515 3 12 3C14.485 3 16.7364 4.00845 18.364 5.63604C19.9915 7.26362 21 9.515 21 12C21 14.485 19.9915 16.7364 18.364 18.364C16.7364 19.9915 14.485 21 12 21C9.515 21 7.26362 19.9915 5.63604 18.364C4.00845 16.7364 3 14.485 3 12C3 9.515 4.00845 7.26362 5.63604 5.63604ZM12 9.625C11.3439 9.625 10.7515 9.88974 10.3206 10.3206C9.88974 10.7515 9.625 11.3439 9.625 12C9.625 12.6561 9.88974 13.2485 10.3206 13.6794C10.7515 14.1103 11.3439 14.375 12 14.375C12.6561 14.375 13.2485 14.1103 13.6794 13.6794C14.1103 13.2485 14.375 12.6561 14.375 12C14.375 11.3439 14.1103 10.7515 13.6794 10.3206C13.2485 9.88974 12.6561 9.625 12 9.625Z" fill="#858585"/>
</svg>

<svg width="24" height="24" fill="none" xmlns="http://www.w3.org/2000/svg" viewBox="0 0 24 24"><path fill-rule="evenodd" clip-rule="evenodd" d="M7.808 6.394L9.695 8.28A4.356 4.356 0 0111 7.74V5.07a6.96 6.96 0 00-3.192 1.324zM13 5.07V7.74c.468.11.908.294 1.305.54l1.887-1.886A6.959 6.959 0 0013 5.07zm4.607 2.737l-1.888 1.887c.247.397.431.837.541 1.305h2.67a6.96 6.96 0 00-1.323-3.192zM18.928 13H16.26c-.11.468-.295.908-.54 1.305l1.886 1.887A6.96 6.96 0 0018.93 13zm-2.737 4.607l-1.887-1.888A4.356 4.356 0 0113 16.26v2.67a6.96 6.96 0 003.192-1.323zM11 18.928V16.26a4.355 4.355 0 01-1.305-.54l-1.887 1.886A6.96 6.96 0 0011 18.93zm-4.606-2.737l1.887-1.887A4.356 4.356 0 017.74 13H5.07a6.959 6.959 0 001.324 3.192zM5.07 11H7.74c.11-.468.294-.908.54-1.305L6.395 7.808A6.96 6.96 0 005.07 11zm.565-5.364A8.975 8.975 0 0112 3a8.975 8.975 0 016.364 2.636A8.975 8.975 0 0121 12a8.975 8.975 0 01-2.636 6.364A8.975 8.975 0 0112 21a8.975 8.975 0 01-6.364-2.636A8.975 8.975 0 013 12a8.975 8.975 0 012.636-6.364zM12 9.625c-.656 0-1.248.265-1.68.696A2.365 2.365 0 009.626 12c0 .656.265 1.248.696 1.68.43.43 1.023.695 1.679.695.656 0 1.248-.265 1.68-.696.43-.43.695-1.023.695-1.679 0-.656-.265-1.248-.696-1.68A2.365 2.365 0 0012 9.626z" fill="currentColor"></path></svg>
